X: 274
T:Scotsbroome Jig
% Nottingham Music Database
S:Mike Richardson 16.12.89, via Phil Rowe
M:6/8
K:D
A3 |"D"d2e fed|"G"BGB "D"A2A|"D"d2e "Bm"fga|"Em"agf "A"e2=f|
"D"fed AFA|"G"BGB "D"A2A|"D"d2d "A"edc|"D"d3 ::
DFA |"C"=c3 "G"B3|"D"ABA F2D|"A"EFG GFE|
"D"DFA d2A|"G"B3 B3|"D"ABA F2D|"A"EFG GFE|"D"D3 :|


